templates/flag_icons/mo.svg

<?xml version="1.0" encoding="UTF-8" standalone="no"?>
<svg width="23px" height="17px" viewBox="0 0 23 17" version="1.1" xmlns="http://www.w3.org/2000/svg" xmlns:xlink="http://www.w3.org/1999/xlink">
    <!-- Generator: Sketch 3.7.2 (28276) - http://www.bohemiancoding.com/sketch -->
    <title>MO</title>
    <desc>Created with Sketch.</desc>
    <defs>
        <linearGradient x1="50%" y1="0%" x2="50%" y2="100%" id="linearGradient-1">
            <stop stop-color="#FFFFFF" offset="0%"></stop>
            <stop stop-color="#F0F0F0" offset="100%"></stop>
        </linearGradient>
        <rect id="path-2" x="0" y="0" width="21" height="15" rx="1.5"></rect>
        <filter x="-50%" y="-50%" width="200%" height="200%" filterUnits="objectBoundingBox" id="filter-4">
            <feOffset dx="0" dy="0.5" in="SourceAlpha" result="shadowOffsetOuter1"></feOffset>
            <feGaussianBlur stdDeviation="0.5" in="shadowOffsetOuter1" result="shadowBlurOuter1"></feGaussianBlur>
            <feColorMatrix values="0 0 0 0 0   0 0 0 0 0   0 0 0 0 0  0 0 0 0.16 0" type="matrix" in="shadowBlurOuter1"></feColorMatrix>
        </filter>
        <linearGradient x1="50%" y1="0%" x2="50%" y2="100%" id="linearGradient-5">
            <stop stop-color="#079D7B" offset="0%"></stop>
            <stop stop-color="#01795E" offset="100%"></stop>
        </linearGradient>
        <rect id="path-6" x="0" y="0" width="21" height="15"></rect>
        <filter x="-50%" y="-50%" width="200%" height="200%" filterUnits="objectBoundingBox" id="filter-7">
            <feMorphology radius="0.25" operator="dilate" in="SourceAlpha" result="shadowSpreadOuter1"></feMorphology>
            <feOffset dx="0" dy="0" in="shadowSpreadOuter1" result="shadowOffsetOuter1"></feOffset>
            <feColorMatrix values="0 0 0 0 0   0 0 0 0 0   0 0 0 0 0  0 0 0 0.06 0" type="matrix" in="shadowOffsetOuter1"></feColorMatrix>
        </filter>
        <path d="M2.4518305,6.90229785 C2.5949082,6.94030272 2.73629673,6.97283288 2.87486696,7.00000015 L0.5,7 C0.618605029,7.35602901 0.778240116,7.69149418 0.972877361,8 L8.02712264,8 L8.02712264,8 C8.22175988,7.69149418 8.38139497,7.35602901 8.5,7 L6.09273789,7 C6.23564626,6.97342299 6.38176522,6.94108962 6.52983342,6.90287496 C6.07592352,6.91795726 5.33586703,7 4.5,7 C3.65278028,7 2.90399136,6.91571353 2.4518305,6.90229785 Z M2.03486814,6.77684443 C0.914121039,6.39849793 0.146013313,5.79167067 0.266754997,5.34105657 C0.401480524,4.83825405 1.59184645,4.72034517 2.92551171,5.0776997 C2.99553548,5.09646251 3.06456206,5.11616246 3.1324836,5.13672218 C3.10229564,4.93343568 3.08621989,4.72003757 3.08621989,4.5 C3.08621989,3.11928813 3.7191908,2 4.5,2 C5.2808092,2 5.91378011,3.11928813 5.91378011,4.5 C5.91378011,4.71889423 5.89787099,4.93121783 5.86798584,5.13355247 C5.94467469,5.10997668 6.02280331,5.0874933 6.10221442,5.06621516 C7.43587968,4.70886063 8.6262456,4.82676952 8.76097113,5.32957203 C8.88272959,5.7839808 8.10060539,6.3972448 6.96446944,6.77486936 C6.76375643,6.17961082 5.7367541,6 4.5,6 C3.26187911,6 2.23397385,6.18000803 2.03486814,6.77684443 Z M7.16607559,9 C6.43763664,9.62539994 5.51005005,10 4.5,10 C3.48994995,10 2.56236336,9.62539994 1.83392441,9 L7.16607559,9 L7.16607559,9 Z" id="path-8"></path>
        <filter x="-50%" y="-50%" width="200%" height="200%" filterUnits="objectBoundingBox" id="filter-9">
            <feOffset dx="0" dy="0.5" in="SourceAlpha" result="shadowOffsetOuter1"></feOffset>
            <feColorMatrix values="0 0 0 0 0   0 0 0 0 0   0 0 0 0 0  0 0 0 0.06 0" type="matrix" in="shadowOffsetOuter1"></feColorMatrix>
        </filter>
        <path d="M4.5,1 C4.77614237,1 5,0.776142375 5,0.5 C5,0.223857625 4.77614237,0 4.5,0 C4.22385763,0 4,0.223857625 4,0.5 C4,0.776142375 4.22385763,1 4.5,1 Z M0.5,3.5 C0.776142375,3.5 1,3.27614237 1,3 C1,2.72385763 0.776142375,2.5 0.5,2.5 C0.223857625,2.5 0,2.72385763 0,3 C0,3.27614237 0.223857625,3.5 0.5,3.5 Z M8.5,3.5 C8.77614237,3.5 9,3.27614237 9,3 C9,2.72385763 8.77614237,2.5 8.5,2.5 C8.22385763,2.5 8,2.72385763 8,3 C8,3.27614237 8.22385763,3.5 8.5,3.5 Z M7,2 C7.27614237,2 7.5,1.77614237 7.5,1.5 C7.5,1.22385763 7.27614237,1 7,1 C6.72385763,1 6.5,1.22385763 6.5,1.5 C6.5,1.77614237 6.72385763,2 7,2 Z M2,2 C2.27614237,2 2.5,1.77614237 2.5,1.5 C2.5,1.22385763 2.27614237,1 2,1 C1.72385763,1 1.5,1.22385763 1.5,1.5 C1.5,1.77614237 1.72385763,2 2,2 Z" id="path-10"></path>
        <filter x="-50%" y="-50%" width="200%" height="200%" filterUnits="objectBoundingBox" id="filter-11">
            <feOffset dx="0" dy="0.5" in="SourceAlpha" result="shadowOffsetOuter1"></feOffset>
            <feColorMatrix values="0 0 0 0 0   0 0 0 0 0   0 0 0 0 0  0 0 0 0.06 0" type="matrix" in="shadowOffsetOuter1"></feColorMatrix>
        </filter>
        <rect id="path-12" x="0" y="0" width="21" height="15" rx="1.5"></rect>
    </defs>
    <g id="Flag-Kit" stroke="none" stroke-width="1" fill="none" fill-rule="evenodd">
        <g id="MO">
            <g id="Rectangle-1-Copy-3" transform="translate(1.000000, 1.000000)">
                <mask id="mask-3" fill="white">
                    <use xlink:href="#path-2"></use>
                </mask>
                <g id="Mask">
                    <use fill="black" fill-opacity="1" filter="url(#filter-4)" xlink:href="#path-2"></use>
                    <use fill="url(#linearGradient-1)" fill-rule="evenodd" xlink:href="#path-2"></use>
                </g>
                <g id="Rectangle-2" mask="url(#mask-3)">
                    <use fill="black" fill-opacity="1" filter="url(#filter-7)" xlink:href="#path-6"></use>
                    <use fill="url(#linearGradient-5)" fill-rule="evenodd" xlink:href="#path-6"></use>
                </g>
                <g id="Oval-9" mask="url(#mask-3)">
                    <g transform="translate(6.000000, 2.000000)">
                        <g id="Mask">
                            <use fill="black" fill-opacity="1" filter="url(#filter-9)" xlink:href="#path-8"></use>
                            <use fill="url(#linearGradient-1)" fill-rule="evenodd" xlink:href="#path-8"></use>
                        </g>
                        <g id="Oval-184">
                            <use fill="black" fill-opacity="1" filter="url(#filter-11)" xlink:href="#path-10"></use>
                            <use fill="#FCD117" fill-rule="evenodd" xlink:href="#path-10"></use>
                        </g>
                    </g>
                </g>
                <mask id="mask-13" fill="white">
                    <use xlink:href="#path-12"></use>
                </mask>
                <g id="Depth"></g>
            </g>
        </g>
    </g>
</svg>

<svg width="23" height="17" viewBox="0 0 23 17" xmlns="http://www.w3.org/2000/svg" xmlns:xlink="http://www.w3.org/1999/xlink"><title>MO</title><defs><linearGradient x1="50%" y1="0%" x2="50%" y2="100%" id="c"><stop stop-color="#FFF" offset="0%"/><stop stop-color="#F0F0F0" offset="100%"/></linearGradient><rect id="a" width="21" height="15" rx="1.5"/><filter x="-50%" y="-50%" width="200%" height="200%" filterUnits="objectBoundingBox" id="b"><feOffset dy=".5" in="SourceAlpha" result="shadowOffsetOuter1"/><feGaussianBlur stdDeviation=".5" in="shadowOffsetOuter1" result="shadowBlurOuter1"/><feColorMatrix values="0 0 0 0 0 0 0 0 0 0 0 0 0 0 0 0 0 0 0.16 0" in="shadowBlurOuter1"/></filter><linearGradient x1="50%" y1="0%" x2="50%" y2="100%" id="g"><stop stop-color="#079D7B" offset="0%"/><stop stop-color="#01795E" offset="100%"/></linearGradient><path id="f" d="M0 0h21v15H0z"/><filter x="-50%" y="-50%" width="200%" height="200%" filterUnits="objectBoundingBox" id="e"><feMorphology radius=".25" operator="dilate" in="SourceAlpha" result="shadowSpreadOuter1"/><feOffset in="shadowSpreadOuter1" result="shadowOffsetOuter1"/><feColorMatrix values="0 0 0 0 0 0 0 0 0 0 0 0 0 0 0 0 0 0 0.06 0" in="shadowOffsetOuter1"/></filter><path d="M2.45 6.9l.42.1H.5c.12.36.28.7.47 1h7.06c.2-.3.35-.64.47-1H6.1l.43-.1c-.45.02-1.2.1-2.03.1-.85 0-1.6-.08-2.05-.1zm-.42-.12C.91 6.4.15 5.79.27 5.34c.13-.5 1.32-.62 2.66-.26l.2.06a4.4 4.4 0 0 1-.04-.64c0-1.38.63-2.5 1.41-2.5.78 0 1.41 1.12 1.41 2.5 0 .22-.01.43-.04.63l.23-.06c1.34-.36 2.53-.24 2.66.26.12.45-.66 1.07-1.8 1.44C6.76 6.18 5.74 6 4.5 6s-2.27.18-2.47.78zM7.17 9a4.08 4.08 0 0 1-5.34 0h5.34z" id="i"/><filter x="-50%" y="-50%" width="200%" height="200%" filterUnits="objectBoundingBox" id="h"><feOffset dy=".5" in="SourceAlpha" result="shadowOffsetOuter1"/><feColorMatrix values="0 0 0 0 0 0 0 0 0 0 0 0 0 0 0 0 0 0 0.06 0" in="shadowOffsetOuter1"/></filter><path d="M4.5 1a.5.5 0 1 0 0-1 .5.5 0 0 0 0 1zm-4 2.5a.5.5 0 1 0 0-1 .5.5 0 0 0 0 1zm8 0a.5.5 0 1 0 0-1 .5.5 0 0 0 0 1zM7 2a.5.5 0 1 0 0-1 .5.5 0 0 0 0 1zM2 2a.5.5 0 1 0 0-1 .5.5 0 0 0 0 1z" id="k"/><filter x="-50%" y="-50%" width="200%" height="200%" filterUnits="objectBoundingBox" id="j"><feOffset dy=".5" in="SourceAlpha" result="shadowOffsetOuter1"/><feColorMatrix values="0 0 0 0 0 0 0 0 0 0 0 0 0 0 0 0 0 0 0.06 0" in="shadowOffsetOuter1"/></filter></defs><g transform="translate(1 1)" fill="none" fill-rule="evenodd"><mask id="d" fill="#fff"><use xlink:href="#a"/></mask><use fill="#000" filter="url(#b)" xlink:href="#a"/><use fill="url(#c)" xlink:href="#a"/><g mask="url(#d)"><use fill="#000" filter="url(#e)" xlink:href="#f"/><use fill="url(#g)" xlink:href="#f"/></g><g mask="url(#d)"><g transform="translate(6 2)"><use fill="#000" filter="url(#h)" xlink:href="#i"/><use fill="url(#c)" xlink:href="#i"/></g><g transform="translate(6 2)"><use fill="#000" filter="url(#j)" xlink:href="#k"/><use fill="#FCD117" xlink:href="#k"/></g></g></g></svg>
